X:1
T:Gelobet seis Du, Jesu Christ
T:Gelobet seist Du, Jesu Christ
T:Johann Walter
C:Johann Walter
%%score [ 1 2 3 4 ]
L:1/8
Q:1/4=80
M:2/2
K:C
V:1 treble nm="Soprano"
V:2 treble nm="Alto"
V:3 treble-8 nm="Tenor"
V:4 bass nm="Bass"
V:1
 G2 | G4 G4 A4 G4 | c4 d4 c8 | B4 d4 e4 d4 | c4 A4 G4 z2 G2 | c4 B4 d4 A4 | G4 E4 D4 z2 D2 | %7
w: Ge-|lo- bet seist Du,|Je- su Christ,|dass Du Mensch ge-|bo- ren bist von|ei- ner Jung- frau,|das ist wahr, des|
 A4 A4 A4 B4 | c4 A4 (G4 A4) | F2 G2 A4 G8 |] %10
w: freu- et sich der|En- gel Schar. _|Ky- ri- e- leis.|
V:2
 D2 | D4 E4 F4 D2 (E2- | E2 C2 G4) E2 F4 F2 | G4 F4 (E2 G2) (F2 G2) | E4 D8 z2 E2 | %5
w: Ge-|lo- bet seist Du, Je-|* * * su Christ, dass|Du Mensch ge- * bo- *|ren bist von|
 C2 C2 G4 (=F3 E D4) | B,2 G,2 A,4 z2 A,2 A,2 B,2 | =C2 F2 (F6 E3 F G2) | (C3 D) (E6 D2) (F3 E | %9
w: ei- ner Jung- frau, _ _|das ist wahr, des freu- et|sich der En- * * *|gel _ Schar. _ Ky- *|
 D2) B,2 A,4 (B,3 C D4) |] %10
w: * ri- e- leis. _ _|
V:3
 G2 | G4 B4 (d3 cBA) B2 | (AG) c4 B2 c4 z2 c2 | (d2 G2 A2 B2) (c3 B A2) B2 | (A2 G4) ^F2 G2 G2 c4 | %5
w: Ge-|lo- bet seist _ _ _ _|Du, _ Je- su Christ, dass|Du _ _ _ Mensch _ _ ge-|bo- * ren bist von ei-|
 A4 (d3 c B2) (A3 G =F2) | (E2 D4) ^C2 D4 z2 d2 | =c2 c2 (d3 c A2) c2 B4 | A4 (c6 B2 A4) | %9
w: ner Jung- * * frau, _ _|das _ ist wahr, des|freu- et sich _ _ der En-|gel Schar. _ _|
 A2 G4 ^F2 G8 |] %10
w: Ky- ri- e- leis.|
V:4
 G,2 | G,4 E,4 (D,2 F,2) (G,2 E,2) | A,4 G,4 C,2 (F,3 G, A,2) | (G,2 E,2) D,4 C,4 (D,2 G,,2) | %4
w: Ge-|lo- bet seist _ Du, _|Je- su Christ, dass _ _|Du _ Mensch ge- bo- *|
 (A,,2 C,2) D,4 z2 G,2 C,2 E,2 | (F,2 A,2 G,4) D,2 (=F,3 E, D,2 | %6
w: ren _ bist von ei- ner|Jung- * * frau, das _ _|
 G,,2 B,,2) A,,4 (D,3 E, F,2) G,2 | A,2 F,2 (D,3 E,F,G, A,4) G,2 | %8
w: _ _ ist wahr, _ _ des|freu- et sich _ _ _ _ der|
 A,2 A,,2 (A,,B,,C,D,E,F, G,2 F,2) D,2- | D,2 G,2 D,4 G,,8 |] %10
w: En- gel Schar. _ _ _ _ _ _ _ Ky-|* ri- e- leis.|

